X: 15150
T: Gigue De Joliette
R: jig
M: 6/8
K: Gmajor
|:DGB d2d|^cde dBG|DGB d2d|^cde d2B|
Bdg f2f|Ace dBG|d(3B^cd fed|cBA G3:|
|:DGB d(3B^cd|eFF F2e|eFF eFF|ece dBG|
DGB d(3B^cd|eFF F2d|d(3B^cd fed|cBA G3:|
g3 f2A|Afe d(3B^cd|^d2A BdG|AGA B2g|
g2B f2A|e^de d2B|d(3B^cd fed|cBA G3:|

